exported-svg/paperclip.svg

<svg height="24" viewBox="0 0 24 24" width="24" xmlns="http://www.w3.org/2000/svg"><path d="m21.5847832 10.8086709-9.19 9.19c-2.1491866 2.1491867-5.63370662 2.1491867-7.78289324 0-2.14918661-2.1491866-2.14918661-5.6337066 0-7.7828932l9.19000004-9.18999997c1.3677037-1.36770366 3.5851895-1.36770364 4.9528931.00000004 1.3677037 1.36770368 1.3677037 3.58518948.0000001 4.95289318l-9.19980771 9.18980775c-.58641308.586413-1.53686475.586413-2.12308553.0001922-.58622077-.5862207-.58622077-1.5366724 0-2.1228932l8.48979164-8.47979169c.1953771-.19514705.1955637-.51172948.0004166-.70710666-.195147-.19537717-.5117294-.19556373-.7071066-.00041668l-8.49000002 8.48000003c-.97695347.9769533-.97695347 2.56057-.0002084 3.537315.97674507.9767451 2.56036172.9767451 3.53710682 0l9.1998077-9.18980777c1.7584202-1.7584202 1.7584202-4.60907097.0001922-6.36729894-1.7582279-1.75822797-4.6088787-1.75822799-6.3671067-.00000005l-9.19000002 9.18999996c-2.53971091 2.539711-2.53971091 6.6573959 0 9.1971068s6.65739592 2.5397109 9.19710682 0l9.19-9.19c.1952621-.1952621.1952621-.5118446 0-.7071068-.1952622-.1952621-.5118447-.1952621-.7071068 0z"/></svg>

<?xml version="1.0" encoding="UTF-8"?>
<svg width="24px" height="24px" viewBox="0 0 24 24" version="1.1" xmlns="http://www.w3.org/2000/svg" xmlns:xlink="http://www.w3.org/1999/xlink">
    <!-- Generator: Sketch 55.2 (78181) - https://sketchapp.com -->
    <title>paperclip</title>
    <desc>Created with Sketch.</desc>
    <g id="paperclip" stroke="none" stroke-width="1" fill="none" fill-rule="evenodd">
        <path d="M21.5847832,10.8086709 L12.3947832,19.9986709 C10.2455966,22.1478576 6.76107658,22.1478576 4.61188996,19.9986709 C2.46270335,17.8494843 2.46270335,14.3649643 4.61188996,12.2157777 L13.80189,3.02577773 C15.1695937,1.65807407 17.3870795,1.65807409 18.7547831,3.02577777 C20.1224868,4.39348145 20.1224868,6.61096725 18.7547832,7.97867095 L9.55497549,17.1684787 C8.96856241,17.7548917 8.01811074,17.7548917 7.43188996,17.1686709 C6.84566919,16.5824502 6.84566919,15.6319985 7.43188996,15.0457777 L15.9216816,6.56598601 C16.1170587,6.37083896 16.1172453,6.05425653 15.9220982,5.85887935 C15.7269512,5.66350218 15.4103688,5.66331562 15.2149916,5.85846267 L6.72499158,14.3384627 C5.74803811,15.315416 5.74803811,16.8990327 6.72478318,17.8757777 C7.70152825,18.8525228 9.2851449,18.8525228 10.26189,17.8757777 L19.4616977,8.68596993 C21.2201179,6.92754973 21.2201179,4.07689896 19.4618899,2.31867099 C17.703662,0.560443022 14.8530112,0.560443 13.0947832,2.31867094 L3.90478318,11.5086709 C1.36507227,14.0483819 1.36507227,18.1660668 3.90478318,20.7057777 C6.44449409,23.2454886 10.5621791,23.2454886 13.10189,20.7057777 L22.29189,11.5157777 C22.4871521,11.3205156 22.4871521,11.0039331 22.29189,10.8086709 C22.0966278,10.6134088 21.7800453,10.6134088 21.5847832,10.8086709 Z" id="Shape" fill="#000000" fill-rule="nonzero"></path>
    </g>
</svg>
